X:1
T:MacIvar's
L:1/8
Q:1/8=128
M:4/4
I:linebreak $
K:C
V:1 treble 
V:1
|: c | G<E E>c G<E E>c | G<E c>E D2 D>c | G<E E>G c>d e>d | c>A GE D2 Dc |$ G<E E>c G<E E>c | %6
 G<E c>E D2 D>c | G<E E>G c>d e>d | c>A GE D2 De | cd/e/ g>e c<g e<a |$ g<c g>e d2 de | %11
 ce/f/ g>e c<g e>d | c>A cE D2 De | cd/e/ g>e c<g e<a | g<c g>e d2 de/f/ |$ g>e f>d e>c d>B | %16
 c>A GE D2 D :| %17
